modules/ve/ui/styles/images/icons/align-float-left.svg

<?xml version="1.0" encoding="UTF-8"?>
<svg xmlns="http://www.w3.org/2000/svg" width="24" height="24" viewBox="0, 0, 24, 24">
    <g id="Background">
        <path fill="none" d="M0 0h24v24h-24z"/>
    </g>
    <g id="align-float-left" opacity=".75">
        <path d="M4 9h6c.554 0 1 .446 1 1v5c0 .554-.446 1-1 1h-6c-.554 0-1-.446-1-1v-5c0-.554.446-1 1-1zM13.5 9h7c.277 0 .5.223.5.5s-.223.5-.5.5h-7c-.277 0-.5-.223-.5-.5s.223-.5.5-.5zM13.5 12h7c.277 0 .5.223.5.5s-.223.5-.5.5h-7c-.277 0-.5-.223-.5-.5s.223-.5.5-.5zM13.5 15h7c.277 0 .5.223.5.5s-.223.5-.5.5h-7c-.277 0-.5-.223-.5-.5s.223-.5.5-.5zM3.5 6h17c.277 0 .5.223.5.5s-.223.5-.5.5h-17c-.277 0-.5-.223-.5-.5s.223-.5.5-.5zM3.5 18h17c.277 0 .5.223.5.5s-.223.5-.5.5h-17c-.277 0-.5-.223-.5-.5s.223-.5.5-.5z"/>
    </g>
</svg>

<?xml version="1.0" encoding="UTF-8"?>
<!DOCTYPE svg PUBLIC "-//W3C//DTD SVG 1.1//EN" "http://www.w3.org/Graphics/SVG/1.1/DTD/svg11.dtd">
<svg version="1.1" xmlns="http://www.w3.org/2000/svg" xmlns:xlink="http://www.w3.org/1999/xlink" x="0px" y="0px" width="24" height="24" viewBox="0, 0, 24, 24">
  <g id="Background">
    <rect x="0" y="0" width="24" height="24" fill="#000000" fill-opacity="0"/>
  </g>
  <g id="align-float-left" opacity="0.75">
    <path d="M4,9 L10,9 C10.554,9 11,9.446 11,10 L11,15 C11,15.554 10.554,16 10,16 L4,16 C3.446,16 3,15.554 3,15 L3,10 C3,9.446 3.446,9 4,9 z" fill="#000000"/>
    <path d="M13.5,9 L20.5,9 C20.777,9 21,9.223 21,9.5 C21,9.777 20.777,10 20.5,10 L13.5,10 C13.223,10 13,9.777 13,9.5 C13,9.223 13.223,9 13.5,9 z" fill="#000000"/>
    <path d="M13.5,12 L20.5,12 C20.777,12 21,12.223 21,12.5 C21,12.777 20.777,13 20.5,13 L13.5,13 C13.223,13 13,12.777 13,12.5 C13,12.223 13.223,12 13.5,12 z" fill="#000000"/>
    <path d="M13.5,15 L20.5,15 C20.777,15 21,15.223 21,15.5 C21,15.777 20.777,16 20.5,16 L13.5,16 C13.223,16 13,15.777 13,15.5 C13,15.223 13.223,15 13.5,15 z" fill="#000000"/>
    <path d="M3.5,6 L20.5,6 C20.777,6 21,6.223 21,6.5 C21,6.777 20.777,7 20.5,7 L3.5,7 C3.223,7 3,6.777 3,6.5 C3,6.223 3.223,6 3.5,6 z" fill="#000000"/>
    <path d="M3.5,18 L20.5,18 C20.777,18 21,18.223 21,18.5 C21,18.777 20.777,19 20.5,19 L3.5,19 C3.223,19 3,18.777 3,18.5 C3,18.223 3.223,18 3.5,18 z" fill="#000000"/>
  </g>
  <defs/>
</svg>
